X: 738
T: The Merry Old Maid
M:6/8
L:1/8
B:O'Neill's 738
R:Jig
Z:"Transcribed by Bob Safranek, rjs@gsp.org"
N:"Collected by J. O'Neill"
K:Em
   (G/F/) | E2 e eB^c | d2 B AFD | E2 e e2 B | efg fdB  |
            E2 e eB^c | d2 B AFD | GFG  AcA  | BGE E2  :|
|: (e/f/) | g2 e efg  | fgf  def | g2 e efg  | a>fd d2 (b/a/) |
            gfe  efg  | fdB  Bcd | e2 B a2 A | BGE E2  :|


